share/icons/Flat-Remix-Blue-Dark/mimetypes/scalable/unknown.svg

<svg xmlns="http://www.w3.org/2000/svg" xmlns:xlink="http://www.w3.org/1999/xlink" width="36pt" height="36pt" version="1.1" viewBox="0 0 36 36"> <defs> <clipPath id="clip1"> <path d="M 20 2 L 31 2 L 31 13 L 20 13 Z M 20 2"/> </clipPath> <clipPath id="clip2"> <path d="M 20.515625 2.625 L 30.328125 12.4375 L 22.023438 12.4375 C 21.292969 12.4375 20.515625 11.660156 20.515625 10.929688 Z M 20.515625 2.625"/> </clipPath> <image id="image6" width="36" height="36" xlink:href="data:image/png;base64,iVBORw0KGgoAAAANSUhEUgAAACQAAAAkCAYAAADhAJiYAAAABmJLR0QA/wD/AP+gvaeTAAAAmklEQVRYhe3T0QqCQBBG4aOtYEoUvf9Lildltl00C4tkbBeTIP+BAUEYP1YW1Pcqh53B9kbgaVPcwQF0tAmGSrMZ6AKcDQXw+AUVHEAtcAUaewYYgYmC3+cBCkAPnDJQMcoDVNnebgEqQnmAclTz4d0I3P4JStc9AjXvk4qLWQV53LLeEOl05gw4A3dgcPiuUkoppZRSSqk99gLWvSJpuDnlsAAAAABJRU5ErkJggg=="/> </defs> <g> <path style="fill:rgb(90.196%,90.196%,90.196%)" d="M 7.347656 3.152344 C 6.675781 3.152344 6.042969 3.785156 6.042969 4.457031 L 6.042969 31.847656 C 6.042969 32.480469 6.714844 33.152344 7.347656 33.152344 L 28.21875 33.152344 C 28.851562 33.152344 29.523438 32.480469 29.523438 31.847656 L 29.523438 11.632812 L 21.042969 3.152344 Z M 7.347656 3.152344"/> <g clip-path="url(#clip1)"> <g clip-path="url(#clip2)"> <use xlink:href="#image6"/> </g> </g> <path style="fill:rgb(100.000%,100.000%,100.000%)" d="M 21.042969 3.152344 L 29.523438 11.632812 L 22.347656 11.632812 C 21.714844 11.632812 21.042969 10.960938 21.042969 10.328125 Z M 21.042969 3.152344"/> <path style="fill:rgb(0%,0%,0%);fill-opacity:0.352941" d="M 16.65625 22.097656 L 16.65625 21.632812 C 16.65625 20.960938 16.773438 20.410156 17.007812 19.976562 C 17.246094 19.539062 17.683594 19.078125 18.324219 18.597656 C 19.210938 17.933594 19.769531 17.4375 20 17.105469 C 20.234375 16.769531 20.351562 16.367188 20.351562 15.898438 C 20.351562 15.308594 20.136719 14.859375 19.707031 14.542969 C 19.28125 14.21875 18.667969 14.058594 17.863281 14.058594 C 17.347656 14.058594 16.84375 14.113281 16.351562 14.222656 C 15.863281 14.328125 15.300781 14.519531 14.664062 14.800781 L 14.085938 13.636719 C 15.320312 13.066406 16.613281 12.78125 17.960938 12.78125 C 19.210938 12.78125 20.179688 13.050781 20.871094 13.59375 C 21.566406 14.132812 21.914062 14.894531 21.914062 15.878906 C 21.914062 16.300781 21.847656 16.671875 21.714844 16.992188 C 21.59375 17.308594 21.40625 17.609375 21.15625 17.898438 C 20.910156 18.179688 20.371094 18.636719 19.550781 19.269531 C 18.890625 19.765625 18.449219 20.175781 18.234375 20.503906 C 18.027344 20.832031 17.921875 21.269531 17.921875 21.8125 L 17.921875 22.097656 L 16.65625 22.097656 M 16.175781 24.660156 C 16.175781 23.878906 16.566406 23.488281 17.351562 23.488281 C 17.730469 23.488281 18.023438 23.589844 18.226562 23.789062 C 18.433594 23.992188 18.539062 24.28125 18.539062 24.660156 C 18.539062 25.03125 18.433594 25.316406 18.226562 25.523438 C 18.015625 25.726562 17.726562 25.824219 17.351562 25.824219 C 17.011719 25.824219 16.730469 25.738281 16.507812 25.558594 C 16.285156 25.375 16.175781 25.074219 16.175781 24.660156"/> </g> </svg>

<svg width="36pt" height="36pt" version="1.1" viewBox="0 0 36 36" xmlns="http://www.w3.org/2000/svg"><defs><filter id="a" x="-.192" y="-.192" width="1.384" height="1.384" color-interpolation-filters="sRGB"><feGaussianBlur stdDeviation="0.67843748"/></filter></defs><path d="m7.3477 3.9022c-0.67188 0-1.3047 0.63281-1.3047 1.3047v27.391c0 0.63281 0.67188 1.3047 1.3047 1.3047h20.871c0.63281 0 1.3047-0.67188 1.3047-1.3047v-20.215l-8.4805-8.4805z" opacity=".3"/><path d="m7.3477 3.1523c-0.67188 0-1.3047 0.63281-1.3047 1.3047v27.391c0 0.63281 0.67188 1.3047 1.3047 1.3047h20.871c0.63281 0 1.3047-0.67188 1.3047-1.3047v-20.215l-8.4805-8.4805z" fill="#e5e5e5"/><path d="m20.668 3.5272 8.4805 8.4805h-7.1758c-0.63281 0-1.3047-0.67187-1.3047-1.3047z" filter="url(#a)" opacity=".2"/><path d="m21.043 3.1523 8.4805 8.4805h-7.1758c-0.63281 0-1.3047-0.67187-1.3047-1.3047z" fill="#fff"/><path d="m16.656 22.098v-0.46484c0-0.67187 0.11719-1.2227 0.35156-1.6562 0.23828-0.4375 0.67578-0.89844 1.3164-1.3789 0.88672-0.66406 1.4453-1.1602 1.6758-1.4922 0.23438-0.33594 0.35156-0.73828 0.35156-1.207 0-0.58984-0.21484-1.0391-0.64453-1.3555-0.42578-0.32422-1.0391-0.48438-1.8438-0.48438-0.51562 0-1.0195 0.054687-1.5117 0.16406-0.48828 0.10547-1.0508 0.29688-1.6875 0.57812l-0.57812-1.1641c1.2344-0.57031 2.5273-0.85547 3.875-0.85547 1.25 0 2.2188 0.26953 2.9102 0.8125 0.69531 0.53906 1.043 1.3008 1.043 2.2852 0 0.42188-0.066406 0.79297-0.19922 1.1133-0.12109 0.31641-0.30859 0.61719-0.55859 0.90625-0.24609 0.28125-0.78516 0.73828-1.6055 1.3711-0.66016 0.49609-1.1016 0.90625-1.3164 1.2344-0.20703 0.32812-0.3125 0.76562-0.3125 1.3086v0.28516h-1.2656m-0.48047 2.5625c0-0.78125 0.39062-1.1719 1.1758-1.1719 0.37891 0 0.67188 0.10156 0.875 0.30078 0.20703 0.20313 0.3125 0.49219 0.3125 0.87109 0 0.37109-0.10547 0.65625-0.3125 0.86328-0.21094 0.20312-0.5 0.30078-0.875 0.30078-0.33984 0-0.62109-0.085938-0.84375-0.26562-0.22266-0.18359-0.33203-0.48438-0.33203-0.89844" fill-opacity=".35294"/></svg>
